incomeartour/img/icons/list.svg

<svg width="300" height="300" viewBox="0 0 300 300" fill="none" xmlns="http://www.w3.org/2000/svg">
<path fill-rule="evenodd" clip-rule="evenodd" d="M21.4139 1.31046C6.47321 6.1278 -2.93253 26.427 0.838674 45.7143C2.20086 52.6796 5.01139 58.9898 8.87403 63.7532C12.5907 68.3363 14.7823 70.0564 19.87 72.3815C22.9906 73.808 27.1603 73.8548 150.286 73.8548H277.477L280.947 72.0942C286.074 69.4934 288.867 67.0809 292.226 62.3486C295.646 57.5328 297.898 52.0987 299.169 45.5964C302.953 26.2459 293.433 6.02552 278.302 1.27455C272.816 -0.447831 26.7612 -0.413479 21.4139 1.31046ZM20.6114 114.488C13.4553 117.054 6.69008 124.094 3.32859 132.471C-5.17041 153.648 3.35496 179.437 20.8623 185.511C23.7877 186.526 40.3971 186.676 149.992 186.676C287.728 186.676 278.891 186.969 285.639 182.164C289.971 179.079 294.819 172.333 297.051 166.281C304.806 145.258 296.198 120.373 279.123 114.449C274.21 112.744 25.3662 112.782 20.6114 114.488ZM23.6195 226.534C13.0151 228.378 3.67499 239.738 0.838674 254.245C-3.00756 273.917 6.77214 294.426 22.0563 298.74C28.0073 300.42 271.978 300.42 277.929 298.74C293.213 294.426 302.993 273.917 299.146 254.245C296.24 239.383 287.041 228.432 275.834 226.493C270.669 225.599 28.7716 225.639 23.6195 226.534Z" fill="black"/>
</svg>

<svg width="300" height="300" fill="none" xmlns="http://www.w3.org/2000/svg"><path fill-rule="evenodd" clip-rule="evenodd" d="M21.414 1.31C6.474 6.128-2.933 26.427.839 45.714 2.2 52.68 5.01 58.99 8.874 63.754c3.717 4.582 5.908 6.302 10.996 8.628 3.12 1.426 7.29 1.473 130.416 1.473h127.191l3.47-1.76c5.127-2.602 7.92-5.014 11.279-9.746 3.42-4.816 5.672-10.25 6.943-16.753 3.784-19.35-5.736-39.57-20.867-44.321-5.486-1.723-251.54-1.688-256.888.035zm-.803 113.178c-7.156 2.566-13.92 9.606-17.282 17.983-8.5 21.177.026 46.966 17.533 53.04 2.926 1.015 19.535 1.165 129.13 1.165 137.736 0 128.899.293 135.647-4.512 4.332-3.085 9.18-9.831 11.412-15.883 7.755-21.023-.853-45.908-17.928-51.832-4.913-1.705-253.757-1.667-258.512.039zm3.008 112.046C13.015 228.378 3.675 239.738.84 254.245c-3.847 19.672 5.933 40.181 21.217 44.495 5.951 1.68 249.922 1.68 255.873 0 15.284-4.314 25.064-24.823 21.217-44.495-2.906-14.862-12.105-25.813-23.312-27.752-5.165-.894-247.062-.854-252.215.041z" fill="#000"/></svg>
